X:471
T: NUN SO WOLLN WIR NOCH EINMAL
N: E1726
O: Europa, Mitteleuropa, Deutschland
R: Scherz - Lied, Soldaten - Lied
M: 3/4
L: 1/16
K: G
d2B2 | G3GG2G2G4 | G3GG2G2G4 | e4e4e4 | d8z4 |
c4c4c4 | B4B4B4 | d4d4d4 | G8

@@@ Tune index: 5155
